X:518
T:I'll Make my Love a Breast of Glass
M:3/4
L:1/8
B:O'Neill's 518
N:"Moderate" "collected by F. O'Neill"
Z:Transcribed by Dave Wooldridge
K:G
(DGA) \
| (B2 A)G Bc | d3 (d ed) | c2 (dc) (Bc) | A3 (DG).A |
B2 (AG) Bc | d3 c (Bc) | A2 BA GF | G3 ||
(G/2A/2) BB \
| (B2 d)(f g)f | (e2 d)c (.B.B) | (B2 c).d cB | A3 (dGA) |
(B2 A).G (Bc) | d2 (ge) (dB) | (A2 B).A GF | G3 ||


